icons/category/icon_category-salary_xl_white.svg

<?xml version="1.0" encoding="UTF-8"?>
<svg width="36px" height="36px" viewBox="0 0 36 36" version="1.1" xmlns="http://www.w3.org/2000/svg" xmlns:xlink="http://www.w3.org/1999/xlink">
    <!-- Generator: Sketch 48.2 (47327) - http://www.bohemiancoding.com/sketch -->
    <title>icon_category-award_xl_white</title>
    <desc>Created with Sketch.</desc>
    <defs></defs>
    <g id="Artboard" stroke="none" stroke-width="1" fill="none" fill-rule="evenodd" transform="translate(-58.000000, -94.000000)">
        <g id="icon_category-award_xl_black-copy" transform="translate(58.000000, 94.000000)">
            <rect id="Rectangle" x="0" y="0" width="36" height="36"></rect>
            <path d="M18,27.5 C23.2467051,27.5 27.5,23.2467051 27.5,18 C27.5,12.7532949 23.2467051,8.5 18,8.5 C12.7532949,8.5 8.5,12.7532949 8.5,18 C8.5,23.2467051 12.7532949,27.5 18,27.5 Z M18,26.5 C13.3055796,26.5 9.5,22.6944204 9.5,18 C9.5,13.3055796 13.3055796,9.5 18,9.5 C22.6944204,9.5 26.5,13.3055796 26.5,18 C26.5,22.6944204 22.6944204,26.5 18,26.5 Z M7.367,32.904 C8.1,33.927 9.044,33.909 9.829,33.03 C10.359,32.436 10.853,31.447 11.327,30.157 C11.7099576,29.0902739 12.0364107,28.0040998 12.305,26.903 L11.331,26.675 L11.266,26.941 C11.0194686,27.9111767 10.7264641,28.8689477 10.388,29.811 C9.955,30.992 9.507,31.889 9.083,32.364 C8.703,32.79 8.518,32.794 8.18,32.321 C7.803,31.795 7.425,30.791 7.068,29.286 L6.996,28.985 L6.696,28.915 C5.108,28.542 4.083,28.144 3.591,27.752 C3.208,27.448 3.227,27.266 3.667,26.887 C4.151,26.471 5.033,26.034 6.184,25.609 C7.21176144,25.2385711 8.25819017,24.9221391 9.319,24.661 L9.089,23.688 C9.036,23.701 8.939,23.724 8.806,23.758 C7.80261517,24.0146226 6.81213987,24.3193072 5.838,24.671 C4.584,25.134 3.614,25.615 3.016,26.129 C2.138,26.883 2.043,27.799 2.968,28.535 C3.566,29.01 4.613,29.431 6.168,29.815 C6.532,31.275 6.928,32.29 7.367,32.904 Z M28.691,3.134 C27.958,2.11 27.014,2.128 26.23,3.008 C25.7,3.601 25.206,4.59 24.732,5.881 C24.3490406,6.94772552 24.0225875,8.03389966 23.754,9.135 L24.728,9.362 C24.9872753,8.30056663 25.302041,7.25346183 25.671,6.225 C26.104,5.045 26.553,4.148 26.976,3.673 C27.356,3.248 27.541,3.244 27.879,3.716 C28.256,4.242 28.635,5.246 28.992,6.752 L29.063,7.052 L29.364,7.123 C30.951,7.496 31.977,7.893 32.468,8.285 C32.851,8.59 32.833,8.772 32.392,9.15 C31.908,9.566 31.026,10.004 29.875,10.428 C28.8472386,10.7984289 27.8008098,11.1148609 26.74,11.376 L26.97,12.349 C28.0701398,12.0785149 29.1553032,11.7503956 30.221,11.366 C31.476,10.904 32.446,10.422 33.044,9.909 C33.921,9.155 34.016,8.239 33.091,7.503 C32.494,7.027 31.446,6.606 29.891,6.222 C29.527,4.762 29.131,3.747 28.692,3.134 L28.691,3.134 Z" id="Shape" fill="#FFFFFF"></path>
            <polygon id="Shape" fill="#FFFFFF" opacity="0.3" points="13.5 10.5 25.5 22.5 22.758 25.243 10.758 13.243"></polygon>
        </g>
    </g>
</svg>

<svg width="36" height="36" viewBox="0 0 36 36" xmlns="http://www.w3.org/2000/svg"><g fill="none" fill-rule="evenodd"><path d="M0 0h36v36H0z"/><path d="M18 27.5a9.5 9.5 0 1 0 0-19 9.5 9.5 0 0 0 0 19zm0-1a8.5 8.5 0 1 1 0-17 8.5 8.5 0 0 1 0 17zM7.367 32.904c.733 1.023 1.677 1.005 2.462.126.53-.594 1.024-1.583 1.498-2.873.383-1.067.71-2.153.978-3.254l-.974-.228-.065.266a31.25 31.25 0 0 1-.878 2.87c-.433 1.181-.881 2.078-1.305 2.553-.38.426-.565.43-.903-.043-.377-.526-.755-1.53-1.112-3.035l-.072-.301-.3-.07c-1.588-.373-2.613-.771-3.105-1.163-.383-.304-.364-.486.076-.865.484-.416 1.366-.853 2.517-1.278a31.338 31.338 0 0 1 3.135-.948l-.23-.973c-.053.013-.15.036-.283.07a32.333 32.333 0 0 0-2.968.913c-1.254.463-2.224.944-2.822 1.458-.878.754-.973 1.67-.048 2.406.598.475 1.645.896 3.2 1.28.364 1.46.76 2.475 1.199 3.089zm21.324-29.77c-.733-1.024-1.677-1.006-2.461-.126-.53.593-1.024 1.582-1.498 2.873a32.246 32.246 0 0 0-.978 3.254l.974.227a31.25 31.25 0 0 1 .943-3.137c.433-1.18.882-2.077 1.305-2.552.38-.425.565-.429.903.043.377.526.756 1.53 1.113 3.036l.071.3.301.071c1.587.373 2.613.77 3.104 1.162.383.305.365.487-.076.865-.484.416-1.366.854-2.517 1.278-1.028.37-2.074.687-3.135.948l.23.973c1.1-.27 2.185-.599 3.251-.983 1.255-.462 2.225-.944 2.823-1.457.877-.754.972-1.67.047-2.406-.597-.476-1.645-.897-3.2-1.281-.364-1.46-.76-2.475-1.199-3.088h-.001z" fill="#FFF"/><path fill="#FFF" opacity=".3" d="M13.5 10.5l12 12-2.742 2.743-12-12z"/></g></svg>
